X: 1
T: The Muckin' o' Geordie's Byre
R: jig
B: RSCDS 5-6
Z: 1997 by John Chambers <jc:trillian.mit.edu>
B: In Oswald's "Curious Scots Tunes" 1742
M: 6/8
L: 1/8
K: D
   z2d  \
| "D"A>AA A<FA | d2e f2a | "G"g2e "D"f2d | "Em"efd "A7"B2{c}d \
| "D"A>AA A<FA | d2e f2g | "(G)"afd "A7"e2f | "D"d3 :|
|: def \
| "G"gdg "(A)"gag | "D"fdf "(Bm)"fgf | "Em"ede "A7"efg | "D"fed "G"B2{c}d \
| "D"A>AA A<FA | d2e f2g | "(G)"afd "A7"e2f | "D"d3 :|
%%center Book05/MuckinOGeordiesByre_JC.abc

%%sep 1 1 500
%%sep 1 1 500

